X: 1
T: Gan Ainm
M: 9/8
L: 1/8
R: slip jig
K: Emin
B3 B2A GFE|GAG Bge fge|B3 B2A GFE|GAG Be^d e2A:|
|B3 g3 fge|c3 egg fge|B3 g3 fga|gfe Be^d e2A|
B3 g3 fge|c3 egg fga|bag gfe fga|gab Be^d e3||
